X:1
T:Donnybrook Fair  "a.k.a. 'The Joy of Life' or 'Humours of Donnybrook'"
M:6/8
L:1/8
Q:80
C:arr. Kent Hiestand
S:Jig
K:HP
|: A | \
{g}d{e}d{c}d{g}ede | \
{g}fg{f}g{ag}afe | \
{g}f{e}f{g}f{g}def |
{g}edB{gBd}B2A | \
{g}d{e}d{c}d{g}ede | \
{g}fg{f}g{ag}afe |
{g}f{e}f{g}f{g}def | \
{g}edc{Gdc}d2 :: \
f |
{a}gfe{fg}fed | \
{g}ege{g}dBA | \
{g}Be{A}e{gde}dBA |
{g}Be{A}e{gef}e2f | \
{a}gag{fg}fed | \
{g}ege{g}dBA |
{g}f{e}f{g}f{g}def | \
{g}edc{Gdc}d2 :|
